src/telerik-icons/solid/list-unordered-square.svg

<?xml version="1.0" encoding="utf-8"?>
<svg xmlns="http://www.w3.org/2000/svg" width="512" height="512" viewBox="0 0 512 512">
  <path d="M128 160H32V64h96v96zm0 64H32v96h96v-96zm0 160H32v96h96v-96zm64-256h288V96H192v32zm0 160h288v-32H192v32zm0 160h288v-32H192v32z"/>
</svg>

<?xml version="1.0" encoding="utf-8"?>
<!-- Generator: Adobe Illustrator 26.0.1, SVG Export Plug-In . SVG Version: 6.00 Build 0)  -->
<svg xmlns="http://www.w3.org/2000/svg" width="512" height="512" viewBox="0 0 512 512">
<path d="M128,160H32V64h96V160z M128,224H32v96h96V224z M128,384H32v96h96V384z M192,128h288V96H192V128z M192,288h288v-32H192V288z
	 M192,448h288v-32H192V448z" />
</svg>
